Sources/FrostedUI/Resources/Icons.xcassets/youtubeSize20.imageset/youtube-size-20.svg

<svg
  width="20"
  height="20"
  viewBox="0 0 20 20"
  fill="none"
  xmlns="http://www.w3.org/2000/svg"
  data-fui-icon="true"
>
  <path
    clip-rule="evenodd"
    d="M16.8369 3.33979C17.5903 3.57301 18.1824 4.2577 18.3841 5.12895C18.7485 6.70654 18.75 9.99999 18.75 9.99999C18.75 9.99999 18.75 13.2935 18.3841 14.8711C18.1824 15.7423 17.5903 16.427 16.8369 16.6602C15.4727 17.0833 10 17.0833 10 17.0833C10 17.0833 4.52728 17.0833 3.16307 16.6602C2.40966 16.427 1.81758 15.7423 1.6159 14.8711C1.25 13.2935 1.25 9.99999 1.25 9.99999C1.25 9.99999 1.25 6.70654 1.6159 5.12895C1.81758 4.2577 2.40966 3.57301 3.16307 3.33979C4.52728 2.91666 10 2.91666 10 2.91666C10 2.91666 15.4727 2.91666 16.8369 3.33979ZM12.6153 9.81981C12.7542 9.9 12.7542 10.1005 12.6153 10.1807L8.47737 12.5695C8.33848 12.6497 8.16487 12.5494 8.16487 12.3891V7.61136C8.16487 7.45099 8.33848 7.35076 8.47737 7.43094L12.6153 9.81981Z"
    stroke="currentColor"
    stroke-width="1.5"
  />
</svg>

<svg xmlns="http://www.w3.org/2000/svg" width="20" height="20" fill="none" data-fui-icon="true" viewBox="0 0 20 20"><path stroke="currentColor" stroke-width="1.5" d="M16.837 3.34c.753.233 1.345.918 1.547 1.789.364 1.578.366 4.871.366 4.871s0 3.294-.366 4.871c-.202.871-.794 1.556-1.547 1.79-1.364.422-6.837.422-6.837.422s-5.473 0-6.837-.423c-.753-.233-1.345-.918-1.547-1.789C1.25 13.293 1.25 10 1.25 10s0-3.293.366-4.871c.202-.871.794-1.556 1.547-1.79C4.527 2.918 10 2.918 10 2.918s5.473 0 6.837.423Zm-4.222 6.48c.14.08.14.28 0 .36l-4.138 2.39a.208.208 0 0 1-.312-.18V7.61c0-.16.173-.26.312-.18z" clip-rule="evenodd"/></svg>
